X: 1
T: Basil The Retriever
Z: Dargai
S: https://thesession.org/tunes/15730#setting29557
R: jig
M: 6/8
L: 1/8
K: Bmin
FBB BAB |dcB cBA | GBB BAB |dcB cBA |
AGA cBc | eaf edc| dBB gBf | edc B3 :||
bBB aBf | BbB aBf |ecB Ace | agf edc |
BAB cBc | def gfe | fBB gBf | edc B3 :||
